dist/img/main/cards/testing-icon.svg

<svg width="30" height="30" viewBox="0 0 30 30" fill="none" xmlns="http://www.w3.org/2000/svg">
<path d="M27.4046 0L11.2763 17.7504L6.59537 14.1818H4L11.2763 26L30 0H27.4046Z" fill="white"/>
<path d="M24.9455 26.3498C24.9455 26.6271 24.7141 26.8581 24.4364 26.8581H3.6562C3.37851 26.8581 3.14711 26.6271 3.14711 26.3498V5.60396C3.14711 5.32673 3.37851 5.09571 3.6562 5.09571H17.8645L20.6876 2H1.01818C0.46281 2 0 2.46205 0 3.0165V28.9373C0 29.538 0.46281 30 1.01818 30H26.9818C27.5372 30 28 29.538 28 28.9835V8.79208L24.8992 13.1353C24.9455 13.1353 24.9455 26.3498 24.9455 26.3498Z" fill="white"/>
</svg>

<svg width="30" height="30" fill="none" xmlns="http://www.w3.org/2000/svg"><path d="M27.405 0 11.276 17.75l-4.68-3.568H4L11.276 26 30 0h-2.595Z" fill="#fff"/><path d="M24.945 26.35a.513.513 0 0 1-.509.508H3.656a.513.513 0 0 1-.509-.508V5.604c0-.277.232-.508.51-.508h14.207L20.688 2H1.018C.463 2 0 2.462 0 3.017v25.92C0 29.538.463 30 1.018 30h25.964c.555 0 1.018-.462 1.018-1.017V8.793l-3.1 4.342c.046 0 .046 13.215.046 13.215Z" fill="#fff"/></svg>
